icons/src/scalable/emblems/external-link-symbolic.svg

<?xml version="1.0" encoding="UTF-8" standalone="no"?>
<svg
   height="16"
   width="16"
   version="1.1"
   id="svg4"
   sodipodi:docname="external-link-symbolic.svg"
   inkscape:version="1.1 (c68e22c387, 2021-05-23)"
   xmlns:inkscape="http://www.inkscape.org/namespaces/inkscape"
   xmlns:sodipodi="http://sodipodi.sourceforge.net/DTD/sodipodi-0.dtd"
   xmlns="http://www.w3.org/2000/svg"
   xmlns:svg="http://www.w3.org/2000/svg"
   xmlns:rdf="http://www.w3.org/1999/02/22-rdf-syntax-ns#"
   xmlns:cc="http://creativecommons.org/ns#"
   xmlns:dc="http://purl.org/dc/elements/1.1/">
  <metadata
     id="metadata10">
    <rdf:RDF>
      <cc:Work
         rdf:about="">
        <dc:format>image/svg+xml</dc:format>
        <dc:type
           rdf:resource="http://purl.org/dc/dcmitype/StillImage" />
      </cc:Work>
    </rdf:RDF>
  </metadata>
  <defs
     id="defs8" />
  <sodipodi:namedview
     pagecolor="#ffffff"
     bordercolor="#666666"
     borderopacity="1"
     objecttolerance="10"
     gridtolerance="10"
     guidetolerance="10"
     inkscape:pageopacity="0"
     inkscape:pageshadow="2"
     inkscape:window-width="1366"
     inkscape:window-height="704"
     id="namedview6"
     showgrid="true"
     inkscape:zoom="14.03125"
     inkscape:cx="4.6325167"
     inkscape:cy="10.298441"
     inkscape:window-x="0"
     inkscape:window-y="27"
     inkscape:window-maximized="1"
     inkscape:current-layer="svg4"
     inkscape:pagecheckerboard="0">
    <inkscape:grid
       type="xygrid"
       id="grid835" />
  </sodipodi:namedview>
  <path
     id="path4"
     style="font-weight:400;line-height:normal;font-variant-ligatures:none;font-variant-position:normal;font-variant-caps:normal;font-variant-numeric:normal;font-variant-alternates:normal;font-feature-settings:normal;text-indent:0;text-align:start;text-decoration:none;text-decoration-line:none;text-decoration-style:solid;text-decoration-color:#000000;text-transform:none;shape-padding:0;isolation:auto;mix-blend-mode:normal;fill:#808080;stroke-width:0.999999;marker:none"
     d="M 14.999515,1 C 14.804353,1.8301437 14.582233,2.6729906 14.335453,3.5292969 14.09018,4.3634302 13.82021,5.1900513 13.524906,6.0078125 L 12.112796,4.59375 8.353031,8.3535156 7.646,7.6464844 11.405765,3.8867188 9.991703,2.4726562 C 10.77447,2.1806211 11.599197,1.9074411 12.460453,1.6542969 13.316052,1.4068095 14.162301,1.1880907 14.999515,1 Z" />
  <path
     id="rect926"
     style="fill:#808080;stroke-width:0.626;fill-opacity:1"
     d="M 2,4 C 0.892,4 0,4.892 0,6 v 8 c 0,1.108 0.892,2 2,2 h 9 c 1.108,0 2,-0.892 2,-2 V 9 h -1 v 5 c 0,0.554 -0.446,1 -1,1 H 2 C 1.446,15 1,14.554 1,14 V 6 C 1,5.446 1.446,5 2,5 H 7 V 4 Z"
     sodipodi:nodetypes="ssssssccssssssccs" />
</svg>

<svg version="1.1" viewBox="0 0 16 16" xmlns="http://www.w3.org/2000/svg">
 <path d="m15 1c-0.83721 0.18809-1.6835 0.40681-2.5391 0.6543-0.86126 0.25314-1.686 0.52632-2.4688 0.81836l1.4141 1.4141-3.7598 3.7598 0.70703 0.70703 3.7598-3.7598 1.4121 1.4141c0.2953-0.81776 0.56527-1.6444 0.81055-2.4785 0.24678-0.85631 0.4689-1.6992 0.66406-2.5293zm-13 3c-1.108 0-2 0.892-2 2v8c0 1.108 0.892 2 2 2h9c1.108 0 2-0.892 2-2v-5h-1v5c0 0.554-0.446 1-1 1h-9c-0.554 0-1-0.446-1-1v-8c0-0.554 0.446-1 1-1h5v-1z" fill="#808080" style="font-feature-settings:normal;font-variant-alternates:normal;font-variant-caps:normal;font-variant-ligatures:none;font-variant-numeric:normal;font-variant-position:normal;isolation:auto;mix-blend-mode:normal;shape-padding:0;text-decoration-color:#000000;text-decoration-line:none;text-decoration-style:solid;text-indent:0;text-transform:none"/>
</svg>
